icons/JarTipsEuro.svg

<svg width="24" height="24" viewBox="0 0 24 24" fill="none" xmlns="http://www.w3.org/2000/svg">
<path fill-rule="evenodd" clip-rule="evenodd" d="M5.24999,4.5c0,-1.24264 1.00736,-2.25 2.25,-2.25h9.00001c1.2426,0 2.25,1.00736 2.25,2.25c0,0.93444 -0.5696,1.73583 -1.3806,2.07588l1.8306,2.44079c0.357,0.47601 0.55,1.05493 0.55,1.65003v8.3333c0,1.5188 -1.2312,2.75 -2.75,2.75h-10.00001c-1.51878,0 -2.75,-1.2312 -2.75,-2.75v-8.3333c0,-0.5951 0.19299,-1.17402 0.55,-1.65003l1.83059,-2.44079c-0.81096,-0.34005 -1.38059,-1.14144 -1.38059,-2.07588zM7.99999,7.25l-2,2.66667c-0.16228,0.21633 -0.25,0.47953 -0.25,0.75003v8.3333c0,0.6904 0.55965,1.25 1.25,1.25h10.00001c0.6903,0 1.25,-0.5596 1.25,-1.25v-8.3333c0,-0.2705 -0.0877,-0.5337 -0.25,-0.75003l-2,-2.66667c-0.2361,-0.31476 -0.6066,-0.5 -1,-0.5h-6.00001c-0.39344,0 -0.76393,0.18524 -1,0.5zM17.25,4.5c0,-0.41421 -0.3358,-0.75 -0.75,-0.75h-9.00001c-0.41421,0 -0.75,0.33579 -0.75,0.75c0,0.41421 0.33579,0.75 0.75,0.75h1.5h6.00001h1.5c0.4142,0 0.75,-0.33579 0.75,-0.75zM12.9747,11.6073c-0.4989,-0.1511 -1.0325,-0.1424 -1.5262,0.0247c-0.4938,0.1671 -0.9229,0.4844 -1.2274,0.9074c-0.1568,0.2177 -0.27644,0.4578 -0.35595,0.7106h2.47695c0.4142,0 0.75,0.3358 0.75,0.75c0,0.4142 -0.3358,0.75 -0.75,0.75h-2.47694c0.07776,0.2473 0.19394,0.4824 0.34574,0.6964c0.3016,0.4252 0.7285,0.7454 1.2211,0.916c0.4925,0.1705 1.026,0.1829 1.5259,0.0353c0.5,-0.1476 0.9412,-0.4478 1.2621,-0.8585c0.255,-0.3265 0.7264,-0.3843 1.0528,-0.1293c0.3264,0.255 0.3843,0.7263 0.1292,1.0527c-0.5134,0.6572 -1.2194,1.1375 -2.0193,1.3737c-0.7998,0.2361 -1.6535,0.2164 -2.4416,-0.0565c-0.788,-0.2729 -1.47111,-0.7853 -1.95363,-1.4655c-0.33343,-0.4701 -0.55957,-1.004 -0.66653,-1.5643h-0.18936c-0.41421,0 -0.75,-0.3358 -0.75,-0.75c0,-0.4142 0.33579,-0.75 0.75,-0.75h0.18936c0.10871,-0.5695 0.34056,-1.1116 0.68276,-1.587c0.48726,-0.6768 1.1739,-1.1845 1.9638,-1.4518c0.79,-0.26743 1.6438,-0.28121 2.442,-0.0395c0.7981,0.2418 1.5008,0.727 2.0097,1.3877c0.2527,0.3282 0.1915,0.7991 -0.1366,1.0518c-0.3282,0.2528 -0.7991,0.1916 -1.0519,-0.1366c-0.318,-0.4129 -0.7572,-0.7162 -1.256,-0.8673z" fill="#002B51"/>
</svg>

<svg width="24" height="24" viewBox="0 0 24 24" fill="none" xmlns="http://www.w3.org/2000/svg">
<path fill-rule="evenodd" clip-rule="evenodd" d="M5.24999 4.5C5.24999 3.25736 6.25735 2.25 7.49999 2.25H16.5C17.7426 2.25 18.75 3.25736 18.75 4.5C18.75 5.43444 18.1804 6.23583 17.3694 6.57588L19.2 9.01667C19.557 9.49268 19.75 10.0716 19.75 10.6667V19C19.75 20.5188 18.5188 21.75 17 21.75H6.99999C5.48121 21.75 4.24999 20.5188 4.24999 19V10.6667C4.24999 10.0716 4.44298 9.49268 4.79999 9.01667L6.63058 6.57588C5.81962 6.23583 5.24999 5.43444 5.24999 4.5ZM8.99999 6.75H15C15.3934 6.75 15.7639 6.93524 16 7.25L18 9.91667C18.1623 10.133 18.25 10.3962 18.25 10.6667V19C18.25 19.6904 17.6903 20.25 17 20.25H6.99999C6.30964 20.25 5.74999 19.6904 5.74999 19V10.6667C5.74999 10.3962 5.83771 10.133 5.99999 9.91667L7.99999 7.25C8.23606 6.93524 8.60655 6.75 8.99999 6.75ZM16.5 5.25H15H8.99999H7.49999C7.08578 5.25 6.74999 4.91421 6.74999 4.5C6.74999 4.08579 7.08578 3.75 7.49999 3.75H16.5C16.9142 3.75 17.25 4.08579 17.25 4.5C17.25 4.91421 16.9142 5.25 16.5 5.25ZM12.9747 11.6073C12.4758 11.4562 11.9422 11.4649 11.4485 11.632C10.9547 11.7991 10.5256 12.1164 10.2211 12.5394C10.0643 12.7571 9.94466 12.9972 9.86515 13.25H12.3421C12.7563 13.25 13.0921 13.5858 13.0921 14C13.0921 14.4142 12.7563 14.75 12.3421 14.75H9.86516C9.94292 14.9973 10.0591 15.2324 10.2109 15.4464C10.5125 15.8716 10.9394 16.1918 11.432 16.3624C11.9245 16.5329 12.458 16.5453 12.9579 16.3977C13.4579 16.2501 13.8991 15.9499 14.22 15.5392C14.475 15.2127 14.9464 15.1549 15.2728 15.4099C15.5992 15.6649 15.6571 16.1362 15.402 16.4626C14.8886 17.1198 14.1826 17.6001 13.3827 17.8363C12.5829 18.0724 11.7292 18.0527 10.9411 17.7798C10.1531 17.5069 9.46999 16.9945 8.98747 16.3143C8.65404 15.8442 8.4279 15.3103 8.32094 14.75H8.13158C7.71737 14.75 7.38158 14.4142 7.38158 14C7.38158 13.5858 7.71737 13.25 8.13158 13.25H8.32094C8.42965 12.6805 8.6615 12.1384 9.0037 11.663C9.49096 10.9862 10.1776 10.4785 10.9675 10.2112C11.7575 9.94377 12.6113 9.92999 13.4095 10.1717C14.2076 10.4135 14.9103 10.8987 15.4192 11.5594C15.6719 11.8876 15.6107 12.3585 15.2826 12.6112C14.9544 12.864 14.4835 12.8028 14.2307 12.4746C13.9127 12.0617 13.4735 11.7584 12.9747 11.6073Z" fill="#002B51"/>
</svg>
